X:1
T:Title
%%score ( 1 2 ) { 3 | 4 }
L:1/8
Q:1/4=117
M:3/4
K:Ab
V:1 treble nm="Grand Piano, Soprano"
V:2 treble 
V:3 bass nm="Choir Pad, Bass"
V:4 bass 
V:1
 [Ec]2 [Ec]4 | [DB]2 [Fd]4 | [Ec]2 [FA]4 | [=EB]2 [_Ec]4 | [Ec]2 [Ec]4 | [DB]2 [Ec]4 | %6
w: By~Charles~H.~Humphrey *||||||
 [DB]2 [CA]4 | [EG][DF] [CE]4 | [CE]2 [Ec]4 | [DB]2 [Fc]4 | [Ec]2 [FA]4 | [=EB]2 [_Ec]4 | %12
w: ||||||
 [Ac]2 [Ge]4 | (3[GB][_Gc][Fd] [Ec]4 | [DB]2 [CA]4- | [CA]4 z2 | B2 [Ge]4 | =dc [GB]4 | B2 c2 cB | %19
w: |||||||
 =AB [Gc]4 | [GB]2 [Ge]4 | =dc [GB]4 | B2 [Ac]4 | [A=d]2 [Ge]4 | [Ge]2 [Ae]4 | [Ad]2 [Ac]4 | %26
w: |||||||
 [EA]2 [EG]4 | [DF]2 [CE]4 | E2 [CA]4 | [CA]2 [DB]4 | [D_c]2 [E=c]4- | [Ec]4 z2 | E2 [Ac]4 | %33
w: |||||||
 [_Gc]2 [Fd]4 | [A=d]2 [Ae]4 | [B=e]2 [Af]4 | dB [FA]4 | GA [Ac]4 | [GB]2 [EA]4- | [EA]6 |] %40
w: |||||||
V:2
 x6 | x6 | x6 | x6 | x6 | x6 | x6 | x6 | x6 | x6 | x6 | x6 | x6 | x6 | x6 | x6 | x6 | A2 z2 z2 | %18
 z2 A4 | x6 | x6 | A2 z2 z2 | x6 | x6 | x6 | x6 | x6 | x6 | x6 | x6 | x6 | x6 | x6 | x6 | x6 | x6 | %36
 F2 z2 z2 | E2 z2 z2 | x6 | x6 |] %40
V:3
 z2 A,,2 A,2 | G,2 A,,2 A,2 | A,2 D,2 D2 | D2 A,,2 A,2 | A,2 E,2 D2 | D2 E,2 D2 | D2 A,,2 A,2 | %7
 A,2 A,,2 A,2 | A,2 A,,2 A,2 | G,2 A,,2 A,2 | A,2 D,2 D2 | D2 A,,2 C2 | C2 E,2 D2 | D2 E,,2 D2 | %14
 D2 A,,2 A,2 | A,2 A,2 z2 | B,2 B,4 | CD E4 | E2 =D4 | =D2 E4 | E2 B,4 | C=D C4 | C2 =D4 | %23
 B,2 B,4 | D2 C4 | F2 E4 | A,2 A,4 | A,2 A,4 | A,2 A,4 | A,2 G,4 | G,2 A,4- | A,4 z2 | E2 E4 | %33
 E2 D4 | F2 E4 | G2 F4 | D2 B,4 | B,C E4 | D2 C4- | C6 |] %40
V:4
 z2 z2 E,2 | E,2 z2 F,2 | E,2 z2 [F,A,]2 | [=E,A,]2 z2 _E,2 | E,2 z2 [G,B,]2 | [G,B,]2 z2 [G,B,]2 | %6
 [G,B,]2 z2 E,2 | F,2 z2 E,2 | E,2 z2 E,2 | E,2 z2 F,2 | E,2 z2 [F,A,]2 | [=E,A,]2 z2 [_E,A,]2 | %12
 [E,A,]2 z2 [G,B,]2 | [G,B,]2 z2 [E,G,]2 | [E,G,]2 z2 E,2 | E,2 [A,,E,]2 z2 | z2 E,4 | E,2 E,4 | %18
 G,2 F,4 | B,,2 E,4 | E,2 E,4 | E,2 E,4 | G,2 F,2 B,2 | B,,2 E,4 | E,2 A,4 | A,2 A,4 | C,2 D,4 | %27
 D,2 A,,4 | C,2 F,4 | F,2 E,4 | E,2 A,,4- | A,,4 z2 | E,2 A,4 | =A,2 B,4 | _C2 =C4 | C2 D4 | %36
 D,2 E,4 | E,2 E,4 | E,2 [A,,A,]4- | [A,,A,]6 |] %40

